X:1
T:Für Elise
T:Beginner - Version
T:L.V. Betthoven
%%score { 1 | 2 }
L:1/8
M:none
K:C
V:1 treble nm="Piano" snm="Pno."
V:2 bass 
V:1
 e_e =e_e =e_e | e_e =eB dc | A4 z A | B4 ^GB | c6 | e_e =e_e =e_e | e_e =eB dc | A4 z A | B4 cB | %9
 A6 :| z2 z B cd | e4 fe | d4 ed | c4 dc | B4 e_e | e_e =e_e =e_e | e_e =eB dc | A4 z A | B4 ^GB | %19
 c6 | e_e =e_e =e_e | e_e =eB dc | A4 z A | B4 cB | A6 |] %25
V:2
 z6 | z6 | A,C EC E2 | ^G,D EE z z | A,C EC EE | z6 | z6 | A,C EC E2 | ^G,D EE z z | A,C EC E2 :| %10
 z6 | CE GG z2 | B,F GG z2 | A,C EE z2 | ^G,D EE z z | z6 | z6 | A,C EC E2 | ^G,D EE z z | %19
 A,C EC EE | z6 | z6 | A,C EC E2 | ^G,D EE z z | A,6 |] %25

